!!!SOCIAL_FUNCTION:	rudimentary (?)
!!!PDT:	1922
!!!OTL: Rudimentary Song B
!!!REG: Southwest
!!!LANG: Non-Tone
!!!LING_GROUP: Uto-Aztecan
**kern
*staff1
=1-
*clefG2
*k[b-e-a-]
*M2/4
4f/
8b-/L
8a-/J
=2
8.g/L
16b-/Jk
4g/
=3
8.f/L
16g/Jk
8.f/L
16g/Jk
=4||
*M3/4
2.e-/
=5||
*M2/4
4B-/
4e-/
=6
4e-/
8B-/L
8f/J
=7||
*M3/4
4e-/
4B-/
4B-/
=8
2.B-/
=9||
*M2/4
16b-/LK
8.g/J
4g/
=10||
*M3/4
16b-/LK
8.g/J
4g/
4f/
=11||
*M2/4
8g/L
16.b-/L
32g/JJk
8b-/L
8g/J
=12
8b-/L
8g/J
8g/L
8f/J
=13
8b-/L
8f/J
8f/L
8e-/J
=14
16f/LK
[8.e-/J
4e-/]
=15
4B-/
4e-/
=16
2e-/
=17
8B-/L
8f/J
4e-/
=18
4B-/
4B-/
=19
2B-/
=20||
*M3/4
2e-/
4b-\
=21
4ee-\
4b-\
16ee-\LK
8.b-;\J
=22||
*M2/4
8.f/L
16g/Jk
[4f/
=23
4f/]
4e-/
=24
8.f/L
16b-/Jk
4g/
=25||
*M3/4
8.f/L
16g/Jk
2f/
=26||
*M2/4
4e-/
4B-/
=27
4e-/
16f/LK
8.e-/J
=28
8.B-/L
16f/Jk
4e-/
=29
4.B-/
8B-/
=30||
*M3/4
2.B-/
=31||
*M2/4
16b-/LK
[8.g/J
8g/L]
8f/J
=32
16b-/LK
8.f/J
4f/
=33
8g/L
16b-/L
16g/JJ
16b-/LL
16g/
16b-/
16g;/JJ
=34
16b-/LK
[8.g/J
8g/L]
8f/J
=35
16b-/LK
[8.f/J
8f/L]
8e-/J
=36
4e-/
4B-/
=37||
*M3/4
4e-/
16B-/LK
8.e-/J
16f/LK
8.e-/J
=38||
*M2/4
4B-/
8B-/L
8B-/J
=39
2B-/
=40
8.b-\L
16cc\Jk
4b-\
=41
8.g/L
16b-/Jk
[4g/
=42
4g/]
4f/
=43
8g/
32b-/LLL
32g/
32b-/
32g/JJJ
8b-/L
8g/J
=44||
*M3/4
8b-/L
8g/J
8g/L
[8f/J
4f/]
=45||
*M2/4
4f/
4e-/
=46||
*M3/4
4B-/
4e-/
16f/LK
8.e-/J
=47||
*M2/4
12B-/L
12f/
12e-/J
4e-/
=48
4B-/
4B-/
=49
2B-/
=50||
*M3/4
16b-/LK
8.g/J
4g/
4f/
=51||
*M2/4
8g/L
16b-/L
16g/JJ
16b-/LK
8.g/J
=52
16b-/LK
[8.g/J
4g/]
=53||
*M3/4
8.f/L
16g/Jk
2f/
=54||
!!pagebreak:default
*M2/4
4e-/
4B-/
=55||
*M3/4
4e-/
16B-/LK
8.e-/J
16f/LK
8.e-/J
=56||
*M2/4
4.B-/
8B-/
=57
2B-/
==
*-
